X:19059
T:Sadler's Balloon
R:Jig
C:Trad.
N:James Sadler made first English balloon ascent in 1784
O:England, Northamptonshire
Z:Paul Hardy's Session Tunebook 2015 (see www.paulhardy.net). Creative Commons cc by-nc-sa licenced.
M:6/8
L:1/8
Q:3/8=100
K:D
"D"D2F A3|d2f d2 A/F/|"G"G2B e2d|"A"cBA "Em"GFE|"D"D2F Ad2|f2d A2F|"Em"G2e "A"cBA|"A7"c3 "D"d3:|
|:"A"A2c e2c|"D"A2d f2d|"A"A2e "Em"g2e|"D"fed "A"cBA|"D"d2A "A"e2A|"D"f2A "Em"g2e|"D"fed "A"cBA|"A7"c3 "D"d3:|

